X: 36101
T: Schoolhouse
R: jig
M: 6/8
K: Amajor
K: F#min
|:FCF AFA|cAc f2g|agf ecB|ABA GFE|
FCF AFA|cAc f2g|agf ecB|1 AFF F2c:|2 AFF Ffg||
|:aff cff|aff cfg|agf ecB|ABA GFE|
aff cff|aff cfg|agf ecB|1 AFF Ffg:|2 AFF F2G||

